X:1
T:Round the Bay of Mexico
M:4/4
L:1/4
K:E
 C| F C F G| F C2 B| A G A B| c3 A| d c A F| G- F G A| G F G A| G3 F|\
 A B c d| c A2 F| A G c d| c- A F G| A/2- G3/2 A c| d/2- c3/2 G3/2 G/2|\
 A c G A| F2|| B,| E F G A| B/2 A3/2 G2| B2 e2| c3/2 c/2B/2 B3/2| c c B G/2G/2|\
 A/2G/2 F/2E/2 G F| z/2 E F/2 G A| G F E||
